;FLAVOR:Marlin
;TIME:1686
;Filament used:0.648077m, 0m
;Layer height: 0.21213
;MINX:89.402
;MINY:0.2
;MINZ:0.212
;MAXX:110.597
;MAXY:16.771
;MAXZ:31.376
                         
;Creality Print GCode Generated by CXEngineDEV
;Generated Time:2022-05-13 18:20:02
;----------Machine Config--------------
;Machine Name:3DPrintMill
;Machine Height:170
;Machine Width:200
;Machine Depth:9999
;Material name:Castable
;Number of Extruders:2
;ExtruderParams[0] Nozzle Diameter1000
;ExtruderParams[1] Nozzle Diameter1000
;----------Profile Config---------------
;Layer Height:0.212
;Wall Thickness:0.8
;Top/Bottom Thickness:1
;Out Wall Line Width:0.4
;Inner Wall Line Width:0.4
;Inital Layer Height:212
;Wall Line Count:3
;Infill Line Distance:4
;Infill Pattern:trihexagon
;Infill Sparse Density:30
;Infill Wipe Distance:0
;Print Temperature:240
;Bed Temperature:75
;Support Enable:false
;Support Density:30
;Support Angle:1.0472
;Adhesion Type:none
;machine is belt:true
;machine belt offset:-32.11
;machine belt offset Y:198.644
;Raft Base Line Spacing:1.6
;Wait Heatup Sync:true
;----------Shell Config----------------
;Outer Wall Wipe Distance:200
;Infill Before Walls:false
;Infill Overlap:0.16
;Fill Gaps Between Walls:everywhere
;Minimum Infill Area:1
;Top Surface Skin Layer:0
;Top Layers:4
;Z Seam Alignment:sharpest_corner
;Seam Corner Preference:z_seam_corner_inner
;Z Seam X:100
;Z Seam Y:4999.5
;Horizontal Expansion:0
;Top/Bottom Pattern:zigzag
;Ironing Pattern:zigzag
;Vase Model:false
;----------Support Config----------------
;Support Type:everywhere
;Support Pattern:zigzag
;Support Infill Layer Thickness:0.15
;Minimum Support Area:3
;Enable Support Roof:false
;Support Roof Thickness:0.8
;Support Roof Pattern:lines
;Connect Support Lines:0
;Connect Support ZigZags:1
;Minimum Support X/Y Distance:0.2
;Support Line Distance:1.33
; ---------PrintSpeed & Travel----------
;Enable Print Cool:true
;Avoid Printed Parts Traveling:true
;Enable Retraction:true
;Retraction Distance:8
;Retraction Speed:100
;Retraction Prime Speed:100
;Maximum Retraction Count:100
;Minimum Extrusion Distance Window:1
;Z Hop When Retracted:false
;Z Hop Height:0.2
;Retract Before Outer Wall:true
;Print Speed:50
;Infill Speed:50

;Prime Tower Speed:50
;Travel Speed:120
;Initial Layer Speed:10
;Skirt/Brim Speed:10
;Combing Mode:off
;---------------------End of Head--------------------------
T0
M140 S75
M105
M104 S240
M105
M109 S240
M105
M190 S75
M82 ;absolute extrusion mode
G90               ; Set to Absolute Positioning
M82               ; Set extruder to absolute mode
G21               ; Metric values
G28 X Y
G92 Z0 E0   ; Set all axis to 0
;home X
G1 Y2             ; Move Y axis off the bed
G28 X0 F2000      ; Home X axis
G1 Z5 F4000  ; Move X to the center
;probe Y
M908 P5 S10       ; Setting the motor current of the Y1 motor off
M908 P1 S10       ; Setting the motor current of the Y2 motor off
G1 Y20 G3000      ; Move Y up
M400              ; Wait for current moves to finish
M908 P5 S25       ; Setting the motor current of the Y1 motor very low
M908 P1 S25       ; Setting the motor current of the Y2 motor off
G1 Y0 F500        ; Move Y down into the belt
M400              ; Wait for current moves to finish
M908 P5 S140      ; Setting the motor current of the Y1 motor to normal
M908 P1 S140      ; Setting the motor current of the Y2 motor to normal
G92 Y{blackbelt_z_offset}
;purge
G1 Y2             ; Move Y axis off the bed
G1 F15000         ; Set high feedrate
G0 X40 Y1 Z20 F500; Extruder 10mm material and move to the side
G1 X150 E20
G1 Z0 E30
G1 X140 Z20 E40
G1 X130 Z0 E50
G1 X120 Z20 E60
G1 X110 Z0 E70
G1 X100 Z20 E80
G1 X90 Z0 E90
G1 X80 Z20 E100
G1 X70 Z0 E110
G1 X60 Z20 E120
G1 X50 Z0 E130
G1 Z21 E140
G1 X150 E160
G92 E0 Z0   
G1 E-4 F3900      ; Retract 4mm at 65mm/s
G92 E0
G92 E0
G1 F6000 E-8

;LAYER_COUNT:148

;LAYER:0
M107
;MESH:
G0 F600 X100.546 Y0.441 Z0.212
;TYPE:WALL-OUTER
G1 F6000 E0
G1 F600 X100.011 Y0.499 E0.01138
G1 X100 Y0.501 E0.01162
G1 X99.99 Y0.5 E0.01183
G1 X99.458 Y0.441 E0.02316
G1 X100 Y0.403 E0.02466
G1 X100.546 Y0.441 E0.02617
G0 X100.348 Y0.462
;MESH:NONMESH
G0 X100.348 Y0.462 Z0.424
G0 X100.143 Y0.227
;TIME_ELAPSED:13.003163

;LAYER:1
M140 S75
M106 S127.5
;TYPE:WALL-OUTER
;MESH:
G1 X100.993 Y0.235 E0.04415
G1 X101.219 Y0.249 E0.04894
G1 X101.726 Y0.306 E0.05973
G1 X101.993 Y0.336 E0.06542
G1 X102.102 Y0.385 E0.06795
G1 X102.227 Y0.441 E0.07084
G1 X102.133 Y0.514 E0.07143
G1 X101.997 Y0.621 E0.0736
G1 X101.741 Y0.702 E0.07848
G1 X101.261 Y0.856 E0.08915
G1 X101.003 Y0.903 E0.0947
G1 X100.753 Y0.936 E0.10003
G1 X99.998 Y0.978 E0.11603
G1 X99.438 Y0.952 E0.12788
G1 X98.989 Y0.902 E0.13744
G1 X98.732 Y0.856 E0.14296
G1 X98.259 Y0.703 E0.15348
G1 X98.007 Y0.622 E0.15908
G1 X97.868 Y0.515 E0.16279
G1 X97.773 Y0.441 E0.16534
G1 X97.899 Y0.384 E0.16631
G1 X98.006 Y0.336 E0.16752
G1 X98.269 Y0.307 E0.17234
G1 X98.779 Y0.25 E0.1832
G1 X99.007 Y0.235 E0.18803
G1 X100.143 Y0.227 E0.21206
G0 F3900 X100.343 Y0.228
G0 X100.407 Y0.284
;TYPE:SKIN
G1 F1050 X99.779 Y0.912 E0.22145
G0 F3900 X99.508 Y0.9
G1 F1050 X100.127 Y0.282 E0.2307
G0 F3900 X99.842 Y0.283
G1 F1050 X99.25 Y0.876 E0.23957
G0 F3900 X98.996 Y0.847
G1 F1050 X99.557 Y0.285 E0.24797
G0 F3900 X99.013 Y0.546
G1 F1050 X98.763 Y0.514 E0.25746
G1 X98.283 Y0.427 E0.27585
;;retract;;
G1 F6000 E-7.72415
G0 F3900 X100.055 Y0.919
G1 F6000 E0.27585
G1 F1050 X100.687 Y0.287 E0.2853
G0 F3900 X100.968 Y0.289
G1 F1050 X100.355 Y0.902 E0.29447
G0 F3900 X100.944 Y0.595
G1 F1050 X101.23 Y0.592 E0.30745
G1 X101.535 Y0.569 E0.32134
G0 F3900 X101.798 Y0.59
G1 F1050 X101.745 Y0.643 E0.32213
;;retract;;
G1 F6000 E-7.67787
;MESH:NONMESH
G0 F600 X101.745 Y0.643 Z0.636
G0 F3900 X100.658 Y0.6
;TIME_ELAPSED:15.723809

;LAYER:2
M106 S255
;TYPE:WALL-INNER
;MESH:
G1 F6000 E0.32213
G1 F600 X101.203 Y0.606 E0.33366
G1 X101.649 Y0.611 E0.34309
G1 X101.981 Y0.622 E0.35012
G1 X101.67 Y0.696 E0.35078
G1 X101.201 Y0.809 E0.35478
G1 X100.678 Y0.849 E0.36097
G1 X100 Y0.902 E0.37536
G1 X99.387 Y0.855 E0.38837
G1 X98.779 Y0.807 E0.40127
G1 X98.33 Y0.698 E0.41104
G1 X98.019 Y0.622 E0.41781
G1 X98.351 Y0.611 E0.41877
G1 X98.776 Y0.607 E0.42182
G1 X99.406 Y0.6 E0.42952
G1 X100 Y0.6 E0.43823
G1 X100.658 Y0.6 E0.44777
G0 F7200 X100.662 Y0.2
;TYPE:WALL-OUTER
G1 F1500 X101.662 Y0.211 E0.46892
G1 X102.378 Y0.234 E0.48408
G1 X102.781 Y0.31 E0.49275
G1 X102.896 Y0.331 E0.49523
G1 X103.032 Y0.409 E0.49854
G1 X103.071 Y0.431 E0.49949
G1 X103.073 Y0.459 E0.50008
G1 X103.054 Y0.479
G1 X102.899 Y0.643 E0.50319
G1 X102.797 Y0.702 E0.50542
G1 X102.517 Y0.864 E0.51227
G1 X102.41 Y0.911 E0.51474
G1 X102.152 Y0.992 E0.52046
G1 X101.264 Y1.206 E0.53978
G1 X100 Y1.303 E0.5666
G1 X98.716 Y1.203 E0.59384
G1 X97.848 Y0.992 E0.61274
G1 X97.591 Y0.911 E0.61844
G1 X97.484 Y0.865 E0.6209
G1 X97.202 Y0.701 E0.6278
G1 X97.1 Y0.642 E0.63029
G1 X96.947 Y0.481 E0.63499
G1 X96.936 Y0.469 E0.63534
G1 X96.946 Y0.422 E0.63635
G1 X96.966 Y0.411
G1 X97.104 Y0.331 E0.63806
G1 X97.22 Y0.31 E0.64029
G1 X97.621 Y0.234 E0.64892
G1 X98.338 Y0.211 E0.6641
G1 X99.402 Y0.2 E0.68661
G1 X100.662 Y0.2 E0.71326
G0 F7200 X100.862 Y0.202
G0 X100.858 Y0.642
;MESH:NONMESH
G0 F600 X100.858 Y0.642 Z0.848
G0 F7200 X101.224 Y1.107
;TIME_ELAPSED:17.592426

;LAYER:3
;TYPE:WALL-INNER
;MESH:
G1 F600 X99.999 Y1.203 E0.73925
G1 X98.779 Y1.108 E0.76514
G1 X98.282 Y0.99 E0.77594
G1 X97.602 Y0.83 E0.79072
G1 X97.571 Y0.822 E0.7914
G1 X97.095 Y0.623 E0.80231
G1 X97.562 Y0.604 E0.80481
G1 X97.656 Y0.6 E0.80623
G1 X98.355 Y0.6 E0.81802
G1 X101.644 Y0.6 E0.88759
G1 X102.343 Y0.6 E0.90238
G1 X102.413 Y0.602 E0.90386
G1 X102.897 Y0.622 E0.91411
G1 X102.435 Y0.817 E0.91729
G1 X102.404 Y0.83 E0.91753
G1 X101.724 Y0.989 E0.92932
G1 X101.224 Y1.107 E0.94019
G0 F7200 X101.281 Y1.504
;TYPE:WALL-OUTER
G1 F600 X99.999 Y1.604 E0.96739
G1 X98.72 Y1.505 E0.99452
G1 X97.446 Y1.203 E1.02222
G1 X96.77 Y0.92 E1.03772
G1 X96.69 Y0.875 E1.03966
G1 X96.45 Y0.702 E1.04592
G1 X96.391 Y0.66 E1.04745
G1 X96.274 Y0.484 E1.05192
G1 X96.282 Y0.417 E1.05335
G1 X96.402 Y0.326 E1.05654
G1 X96.473 Y0.311 E1.05807
G1 X96.825 Y0.233 E1.0657
G1 X97.64 Y0.2 E1.08295
G1 X102.359 Y0.2 E1.18278
G1 X103.197 Y0.234 E1.20052
G1 X103.504 Y0.304 E1.20718
G1 X103.598 Y0.325 E1.20922
G1 X103.719 Y0.418 E1.21244
G1 X103.727 Y0.484 E1.21385
G1 X103.634 Y0.629 E1.21749
G1 X103.559 Y0.689 E1.21953
G1 X103.471 Y0.76 E1.22192
G1 X103.26 Y0.904 E1.22732
G1 X102.535 Y1.21 E1.24397
G1 X101.281 Y1.504 E1.27121
G0 F7200 X101.082 Y1.519
G0 X101.049 Y1.081
G0 X101.244 Y0.86
;TYPE:SKIN
G1 F600 X101.524 Y0.864 E1.27786
G1 X99.806 Y0.884 E1.31866
G1 X98.732 Y0.827 E1.3442
G0 F7200 X98.33 Y0.946
G1 F600 X98.623 Y0.654 E1.34857
;;retract;;
G1 F6000 E-6.65143
;MESH:NONMESH
G0 F600 X98.623 Y0.654 Z1.06
G0 F7200 X101.162 Y1.011
;TIME_ELAPSED:21.342346

;LAYER:4
;TYPE:WALL-INNER
;MESH:
G1 F6000 E1.34857
G1 F600 X100 Y1.102 E1.37323
G1 X98.838 Y1.011 E1.39788
G1 X98.79 Y1 E1.39892
G1 X98.838 Y1 E1.39894
G1 X100 Y1 E1.40241
G1 X101.162 Y1 E1.40588
G1 X101.209 Y1 E1.40687
G1 X101.162 Y1.011 E1.40691
G0 F7200 X101.221 Y1.408
G1 F1500 X100 Y1.503 E1.43282
G1 X98.779 Y1.408 E1.45872
G1 X97.564 Y1.122 E1.48513
G1 X97.204 Y0.976 E1.49334
G1 X96.797 Y0.812 E1.50263
G1 X96.587 Y0.727 E1.50742
G1 X96.397 Y0.623 E1.512
G1 X96.581 Y0.615 E1.51238
G1 X96.882 Y0.6 E1.51563
G1 X97.321 Y0.6 E1.52296
G1 X102.676 Y0.6 E1.63624
G1 X103.121 Y0.6 E1.64565
G1 X103.424 Y0.613 E1.65207
G1 X103.606 Y0.622 E1.65592
G1 X103.419 Y0.725 E1.65698
G1 X103.206 Y0.81 E1.65865
G1 X102.794 Y0.976 E1.66605
G1 X102.432 Y1.122 E1.67431
G1 X101.221 Y1.408 E1.70063
G0 F7200 X101.28 Y1.805
;TYPE:WALL-OUTER
G1 F1500 X100 Y1.904 E1.72778
G1 X98.72 Y1.805 E1.75494
G1 X97.44 Y1.503 E1.78276
G1 X96.416 Y1.09 E1.80612
G1 X96.135 Y0.936 E1.8129
G1 X95.905 Y0.735 E1.81936
G1 X95.83 Y0.67 E1.82146
G1 X95.742 Y0.524 E1.82506
G1 X95.73 Y0.503 E1.82557
G1 X95.754 Y0.417 E1.82746
G1 X95.843 Y0.372 E1.82957
G1 X96.019 Y0.281 E1.83376
G1 X96.043 Y0.276 E1.83428
G1 X96.275 Y0.228 E1.83929
G1 X96.863 Y0.2 E1.85175
G1 X103.139 Y0.2 E1.98451
G1 X103.728 Y0.227 E1.99698
G1 X103.948 Y0.272 E2.00173
G1 X103.951 Y0.272 E2.00179
G1 X104.154 Y0.372 E2.00658
G1 X104.246 Y0.417 E2.00874
G1 X104.27 Y0.504 E2.01065
G1 X104.268 Y0.507 E2.01073
G1 X104.171 Y0.669 E2.01472
G1 X104.094 Y0.736 E2.01688
G1 X103.863 Y0.938 E2.02337
G1 X103.592 Y1.086 E2.02991
G1 X102.554 Y1.504 E2.05358
G1 X101.28 Y1.805 E2.08127
G0 F7200 X101.081 Y1.82
G0 X101.049 Y1.382
;MESH:NONMESH
G0 F600 X101.049 Y1.382 Z1.272
G0 F7200 X101.162 Y1.311
;TIME_ELAPSED:23.791880

;LAYER:5
;TYPE:WALL-INNER
;MESH:
G1 F600 X100.04 Y1.398 E2.10507
G1 X100 Y1.402 E2.10592
G1 X99.96 Y1.398 E2.10677
G1 X98.838 Y1.311 E2.13058
G1 X97.693 Y1.042 E2.15546
G1 X97.588 Y1 E2.15785
G1 X97.693 Y1 E2.15793
G1 X98.838 Y1 E2.16856
G1 X99.963 Y1 E2.18973
G1 X100.037 Y1 E2.1913
G1 X101.162 Y1 E2.21247
G1 X102.313 Y1 E2.23682
G1 X102.413 Y1 E2.23893
G1 X102.313 Y1.04 E2.23916
G1 X101.162 Y1.311 E2.25044
G0 F7200 X101.221 Y1.708
G1 F600 X100 Y1.803 E2.27635
G1 X98.779 Y1.708 E2.30225
G1 X97.568 Y1.423 E2.32857
G1 X96.498 Y0.997 E2.35293
G1 X96.378 Y0.949 E2.35567
G1 X96.101 Y0.783 E2.3625
G1 X95.836 Y0.623 E2.36905
G1 X96.21 Y0.6 E2.3719
G1 X96.378 Y0.6 E2.37397
G1 X96.508 Y0.6 E2.37655
G1 X103.492 Y0.6 E2.52429
G1 X103.617 Y0.6 E2.52693
G1 X103.789 Y0.6 E2.53057
G1 X104.164 Y0.623 E2.53852
G1 X103.899 Y0.782 E2.53998
G1 X103.617 Y0.951 E2.54542
G1 X103.501 Y0.997 E2.5479
G1 X102.438 Y1.421 E2.57211
G1 X102.405 Y1.428 E2.57282
G1 X101.221 Y1.708 E2.59856
G0 F7200 X101.28 Y2.105
;TYPE:WALL-OUTER
G1 F600 X100 Y2.204 E2.62572
G1 X98.72 Y2.105 E2.65287
G1 X97.443 Y1.804 E2.68063
G1 X96.201 Y1.309 E2.70891
G1 X95.591 Y0.942 E2.72397
G1 X95.339 Y0.703 E2.73132
G1 X95.316 Y0.681 E2.73199
G1 X95.227 Y0.5 E2.73626
G1 X95.241 Y0.412 E2.73814
G1 X95.348 Y0.32 E2.74113
G1 X95.379 Y0.311 E2.74181
G1 X95.641 Y0.234 E2.74759
G1 X96.203 Y0.2 E2.7595
G1 X103.796 Y0.2 E2.92011
G1 X104.358 Y0.234 E2.93202
G1 X104.536 Y0.287 E2.93595
G1 X104.651 Y0.32 E2.93848
G1 X104.75 Y0.405 E2.94124
G1 X104.756 Y0.52 E2.94368
G1 X104.689 Y0.619 E2.94621
G1 X104.552 Y0.818 E2.95132
G1 X104.414 Y0.939 E2.9552
G1 X103.799 Y1.308 E2.97037
G1 X102.557 Y1.804 E2.99866
G1 X101.28 Y2.105 E3.02642
G0 F7200 X101.081 Y2.12
G0 X101.049 Y1.682
;;retract;;
G1 F6000 E-4.97358
;MESH:NONMESH
G0 F600 X101.049 Y1.682 Z1.484
G0 F7200 X96.836 Y1
;TIME_ELAPSED:29.168203

;LAYER:6
;TYPE:WALL-INNER
;MESH:
G1 F6000 E3.02642
G1 F732.6 X97.693 Y1 E3.04454
G1 X97.938 Y1 E3.04973
G1 X102.057 Y1 E3.13686
G1 X102.319 Y1 E3.1424
G1 X102.477 Y1 E3.14574
G1 X103.165 Y1 E3.1603
G1 X103.166 Y1 E3.16032
G1 X103.167 Y1 E3.16034
G1 X103.166 Y1 E3.16036
G1 X102.465 Y1.28 E3.17633
G1 X102.319 Y1.338 E3.1794
G1 X102.064 Y1.398 E3.18452
G1 X101.162 Y1.611 E3.20412
G1 X100 Y1.702 E3.22878
G1 X98.838 Y1.611 E3.25344
G1 X97.931 Y1.398 E3.27314
G1 X97.693 Y1.342 E3.27795
G1 X96.836 Y1 E3.2869
;;retract;;
G1 F6000 E-4.7131
G0 F7200 X95.382 Y0.65
G1 F6000 E3.2869
G1 F732.6 X95.459 Y0.637 E3.28855
G1 X95.671 Y0.6 E3.2931
G1 X96.028 Y0.6 E3.30066
G1 X104.312 Y0.6 E3.47589
G1 X104.54 Y0.615 E3.48072
G1 X104.624 Y0.621 E3.48251
G1 X104.65 Y0.623 E3.48306
G1 X104.622 Y0.654
G1 X104.534 Y0.719 E3.48343
G1 X104.42 Y0.785 E3.48401
G1 X103.623 Y1.248 E3.50351
G1 X103.316 Y1.37 E3.5105
G1 X103.315 Y1.37 E3.51052
G1 X102.438 Y1.721 E3.5305
G1 X101.221 Y2.008 E3.55695
G1 X100 Y2.103 E3.58286
G1 X98.779 Y2.008 E3.60876
G1 X97.568 Y1.723 E3.63508
G1 X96.374 Y1.247 E3.66227
G1 X95.877 Y0.959 E3.67442
G1 X95.568 Y0.78 E3.68022
G1 X95.475 Y0.726 E3.68046
G1 X95.382 Y0.65 E3.6813
G0 F7200 X95.029 Y0.392
;TYPE:WALL-OUTER
G1 F732.6 X95.108 Y0.291 E3.68401
G1 X95.133 Y0.287 E3.68455
G1 X95.638 Y0.2 E3.69539
G1 X104.324 Y0.2 E3.87913
G1 X104.819 Y0.233 E3.88962
G1 X105.049 Y0.31 E3.89475
G1 X105.157 Y0.458 E3.89863
G1 X105.102 Y0.709 E3.90406
G1 X104.895 Y0.951 E3.9108
G1 X104.756 Y1.052 E3.91444
G1 X104.439 Y1.242 E3.92225
G1 X103.798 Y1.608 E3.93787
G1 X102.557 Y2.104 E3.96614
G1 X101.28 Y2.405 E3.99389
G1 X100 Y2.504 E4.02105
G1 X98.72 Y2.405 E4.04821
G1 X97.443 Y2.104 E4.07596
G1 X96.2 Y1.609 E4.10426
G1 X95.247 Y1.056 E4.12757
G1 X95.055 Y0.899 E4.13281
G1 X94.9 Y0.702 E4.13812
G1 X94.836 Y0.536 E4.14188
G1 X94.827 Y0.512 E4.14242
G1 X94.836 Y0.459 E4.14356
G1 X95.029 Y0.392 E4.14788
G0 F7200 X95.108 Y0.291
G0 X95.133 Y0.287
G0 X95.179 Y0.28
;;retract;;
G1 F6000 E-3.85212
G0 F7200 X98.024 Y1.291
;TYPE:SKIN
G1 F6000 E4.14788
G1 F732.6 X98.278 Y1.263 E4.15499
G1 X99.777 Y1.348 E4.19674
G1 X101.637 Y1.228 E4.24857
G0 F7200 X102.039 Y1.347
G1 F732.6 X101.747 Y1.055 E4.25293
;;retract;;
G1 F6000 E-3.74707
;MESH:NONMESH
G0 F600 X101.747 Y1.055 Z1.696
G0 F7200 X96.224 Y1
;TIME_ELAPSED:36.055454

;LAYER:7
;TYPE:WALL-INNER
;MESH:
G1 F6000 E4.25293
G1 F910.6 X96.544 Y1 E4.2597
G1 X97.104 Y1 E4.27155
G1 X102.899 Y1 E4.39413
G1 X103.449 Y1 E4.40577
G1 X103.777 Y1 E4.41271
G1 X103.449 Y1.188 E4.41519
G1 X102.938 Y1.391 E4.42379
G1 X102.319 Y1.638 E4.43789
G1 X101.162 Y1.911 E4.46304
G1 X100 Y2.001 E4.48769
G1 X98.838 Y1.911 E4.51235
G1 X97.693 Y1.642 E4.53723
G1 X97.064 Y1.391 E4.55155
G1 X96.544 Y1.184 E4.56026
G1 X96.224 Y1 E4.56265
;;retract;;
G1 F6000 E-3.43735
G0 F7200 X95.004 Y0.686
G1 F6000 E4.56265
G1 F910.6 X95.127 Y0.643 E4.56541
G1 X95.147 Y0.617 E4.5661
G1 X95.194 Y0.609 E4.56711
G1 X95.245 Y0.6 E4.56821
G1 X95.432 Y0.6 E4.57216
G1 X104.742 Y0.6 E4.7691
G1 X104.783 Y0.6 E4.76997
G1 X105.023 Y0.617 E4.77506
G1 X105.064 Y0.621 E4.77593
G1 X105.019 Y0.676
G1 X104.919 Y0.76 E4.77625
G1 X104.742 Y0.909 E4.78016
G1 X103.975 Y1.346 E4.79884
G1 X103.647 Y1.534 E4.80683
G1 X103.623 Y1.548 E4.80742
G1 X103.597 Y1.558 E4.80801
G1 X102.438 Y2.021 E4.83441
G1 X101.221 Y2.308 E4.86086
G1 X100 Y2.402 E4.88676
G1 X98.779 Y2.308 E4.91267
G1 X97.568 Y2.023 E4.93899
G1 X96.372 Y1.546 E4.96622
G1 X95.407 Y0.992 E4.98976
G1 X95.245 Y0.899 E4.99323
G1 X95.097 Y0.769 E4.99591
G1 X95.052 Y0.729
G1 X95.004 Y0.686
G0 F7200 X94.882 Y0.305
;TYPE:WALL-OUTER
G1 F910.6 X94.925 Y0.249 E4.99741
